images_sukapura_svg/cmd/lc_datadatapilotrun.svg

<svg viewBox="0 0 24 24" xmlns="http://www.w3.org/2000/svg" xmlns:xlink="http://www.w3.org/1999/xlink"><linearGradient id="a" gradientUnits="userSpaceOnUse" x1="33.687571" x2="25.937355" y1="23.062441" y2="12.687441"><stop offset="0" stop-color="#0040dd"/><stop offset="1" stop-color="#0a84ff"/></linearGradient><g fill="#fff"><path d="m3 3h18v18h-18z" fill="#fdfefe"/><path d="m8 3h13v1h-13z"/><path d="m3 8h1v13h-1z"/></g><g fill="#808080"><path d="m3 2c-.554 0-1 .446-1 1v18c0 .554.446 1 1 1h18c.554 0 1-.446 1-1v-18c0-.554-.446-1-1-1zm0 1h18v18h-18z" fill="#929292"/><g fill="#a2a2a7"><path d="m4 4h3v3h-3z"/><path d="m9 4v3h5.875l.53125-.53125-.085938.0976562c.288389-.3753123.73964-.5933074 1.212891-.5859374a1.0001 1.0001 0 0 1 .003906 0c.457925.0085672.888773.2272343 1.166016.5917968l-.089844-.1015625.529297.5292969h.857422v-3z"/><path d="m4 9v10h3v-.90625l-.5117188-.511719.0957032.083985c-.7599903-.587053-.7570104-1.7956.0058594-2.378907l-.0996094.087891.5097656-.509766v-5.865234z"/></g></g><path d="m16.492188 7a.50005.50005 0 0 0 -.345704.1464844l-3 2.9999996a.50005.50005 0 0 0 .353516.853516h2.005859l-.001953.988281a.49599547.49599547 0 0 0 0 .001953c0 1.940444-1.561769 3.502834-3.501953 3.503907l-1.001953-.003907v-1.990234a.49998857.49998857 0 0 0 -.515625-.5.49998857.49998857 0 0 0 -.337891.146484l-2.9999996 3a.49998857.49998857 0 0 0 0 .707032l2.9999996 3a.49998857.49998857 0 0 0 .853516-.353516v-2.017578l.998047.003906a.49599547.49599547 0 0 0 .001953 0c3.028788 0 5.495011-2.465601 5.496094-5.49414v-.001954l.003906-.990234h2a.50005.50005 0 0 0 .353516-.853516l-3-2.9999996a.50005.50005 0 0 0 -.361328-.1464844z" fill="url(#a)" fill-rule="evenodd"/></svg>

<?xml version="1.0" encoding="UTF-8" standalone="no"?>
<svg
   xmlns:dc="http://purl.org/dc/elements/1.1/"
   xmlns:cc="http://creativecommons.org/ns#"
   xmlns:rdf="http://www.w3.org/1999/02/22-rdf-syntax-ns#"
   xmlns:svg="http://www.w3.org/2000/svg"
   xmlns="http://www.w3.org/2000/svg"
   xmlns:xlink="http://www.w3.org/1999/xlink"
   xmlns:sodipodi="http://sodipodi.sourceforge.net/DTD/sodipodi-0.dtd"
   xmlns:inkscape="http://www.inkscape.org/namespaces/inkscape"
   viewBox="0 0 24 24"
   version="1.1"
   id="svg22"
   sodipodi:docname="lc_datadatapilotrun.svg"
   inkscape:version="0.92.3 (2405546, 2018-03-11)">
  <metadata
     id="metadata28">
    <rdf:RDF>
      <cc:Work
         rdf:about="">
        <dc:format>image/svg+xml</dc:format>
        <dc:type
           rdf:resource="http://purl.org/dc/dcmitype/StillImage" />
        <dc:title></dc:title>
      </cc:Work>
    </rdf:RDF>
  </metadata>
  <defs
     id="defs26">
    <linearGradient
       gradientTransform="translate(16.8125,3.5625)"
       id="a"
       gradientUnits="userSpaceOnUse"
       x1="14"
       x2="13.79661"
       y1="22"
       y2="2.1355929">
      <stop
         offset="0"
         stop-color="#0040dd"
         id="stop2189" />
      <stop
         offset="1"
         stop-color="#0a84ff"
         id="stop2191" />
    </linearGradient>
    <linearGradient
       inkscape:collect="always"
       xlink:href="#a"
       id="linearGradient2778"
       x1="16.875071"
       y1="19.499941"
       x2="9.124855"
       y2="9.1249409"
       gradientUnits="userSpaceOnUse" />
  </defs>
  <sodipodi:namedview
     pagecolor="#ffffff"
     bordercolor="#666666"
     borderopacity="1"
     objecttolerance="10"
     gridtolerance="10"
     guidetolerance="10"
     inkscape:pageopacity="0"
     inkscape:pageshadow="2"
     inkscape:window-width="1366"
     inkscape:window-height="685"
     id="namedview24"
     showgrid="true"
     inkscape:snap-global="false"
     inkscape:zoom="8"
     inkscape:cx="10.264763"
     inkscape:cy="3.0902877"
     inkscape:window-x="0"
     inkscape:window-y="0"
     inkscape:window-maximized="1"
     inkscape:current-layer="svg22">
    <inkscape:grid
       type="xygrid"
       id="grid835"
       spacingx="0.5"
       spacingy="0.5"
       empspacing="2" />
  </sodipodi:namedview>
  <g
     fill="#fff"
     id="g8">
    <path
       d="m3 3h18v18h-18z"
       id="path2"
       style="stroke:none;fill:#fdfefe;fill-opacity:1" />
    <path
       d="m8 3h13v1h-13z"
       id="path4" />
    <path
       d="m3 8h1v13h-1z"
       id="path6" />
  </g>
  <g
     fill="#808080"
     id="g18">
    <path
       d="m3 2c-.554 0-1 .446-1 1v18c0 .554.446 1 1 1h18c .554 0 1-.446 1-1v-18c0-.554-.446-1-1-1zm0 1h18v18h-18z"
       id="path10"
       style="fill:#929292;fill-opacity:1" />
    <path
       d="m4 4h3v3h-3z"
       id="path12"
       style="fill:#a2a2a7;fill-opacity:1" />
    <path
       d="m9 4v3h5.875l.53125-.53125-.085938.0976562c.288389-.3753123.73964-.5933074 1.212891-.5859374a1.0001 1.0001 0 0 1  .003906 0c .457925.0085672.888773.2272343 1.166016.5917968l-.089844-.1015625.529297.5292969h.857422v-3z"
       id="path14"
       style="fill:#a2a2a7;fill-opacity:1" />
    <path
       d="m4 9v10h3v-.90625l-.5117188-.511719.0957032.083985c-.7599903-.587053-.7570104-1.7956.0058594-2.378907l-.0996094.087891.5097656-.509766v-5.865234z"
       id="path16"
       style="fill:#a2a2a7;fill-opacity:1" />
  </g>
  <path
     style="fill:url(#linearGradient2778);fill-rule:evenodd;fill-opacity:1"
     d="M 16.492188 7 A 0.50005 0.50005 0 0 0 16.146484 7.1464844 L 13.146484 10.146484 A 0.50005 0.50005 0 0 0 13.5 11 L 15.505859 11 L 15.503906 11.988281 A 0.49599547 0.49599547 0 0 0 15.503906 11.990234 C 15.503906 13.930678 13.942137 15.493068 12.001953 15.494141 L 11 15.490234 L 11 13.5 A 0.49998857 0.49998857 0 0 0 10.484375 13 A 0.49998857 0.49998857 0 0 0 10.146484 13.146484 L 7.1464844 16.146484 A 0.49998857 0.49998857 0 0 0 7.1464844 16.853516 L 10.146484 19.853516 A 0.49998857 0.49998857 0 0 0 11 19.5 L 11 17.482422 L 11.998047 17.486328 A 0.49599547 0.49599547 0 0 0 12 17.486328 C 15.028788 17.486328 17.495011 15.020727 17.496094 11.992188 L 17.496094 11.990234 L 17.5 11 L 19.5 11 A 0.50005 0.50005 0 0 0 19.853516 10.146484 L 16.853516 7.1464844 A 0.50005 0.50005 0 0 0 16.492188 7 z "
     id="path20" />
</svg>
